!!!!SEGMENT: pl-kk--kk-i-382--004-002_anonim--nro-1-sanctus.krn
!!!cenid: 18xx:1458
!!!COM: Anonim
!!!COM-rismid: pe30004985
!!!CDT:
!!!CNT:
!!!OTL: Nro 1 Sanctus
!!!PDT:
!!!AGN: Sacred
!!!SMS-siglum: PL-Kk
!!!SMS-shelfmark: Kk.I.382
!!!SMS-shelfwork: 004-002
!!!SMS-variant:
!!!SMS-altvar:
!!!NIFC-rismid: 1001139086
!!!URL-scan: http://repozytorium.nifc.pl/skany/pl-kk-nut--i-382
!!!ONB-nifc: UWAGA: obsada: S/T 1, T 2, A/B 1, B 2, Sanctus, Osanna + Benedictus. Skan 0005 (m.in.)
**kern	**text	**kern	**text	**kern	**text	**kern	**text
*part4	*part4	*part3	*part3	*part2	*part2	*part1	*part1
*staff4	*staff4	*staff3	*staff3	*staff2	*staff2	*staff1	*staff1
*I"Basso II	*	*I"Tenore II	*	*I"Alto vel Basso I	*	*I"Soprano vel Tenore I.	*
*I'B 2	*	*I'T 2	*	*I'A (B)	*	*I'S (T 1)	*
*clefF4	*	*clefC4	*	*clefC3	*	*clefC1	*
*k[]	*	*k[]	*	*k[]	*	*k[]	*
*M4/4	*	*M4/4	*	*M4/4	*	*M4/4	*
*met(C.)	*	*met(C.)	*	*met(C.)	*	*met(C.)	*
=1	=1	=1	=1	=1	=1	=1	=1
*2\right	*	*2\right	*	*2\right	*	*2\right	*
!LO:TX:t=P:problem:all\right:global	!	!	!	!	!	!	!
4C\	San-	4E/	San-	1g	Sanc-	1ee	San-
4D\	.	4F/	.	.	.	.	.
4E\	.	4G/	.	.	.	.	.
4F\	.	4A/	.	.	.	.	.
=2	=2	=2	=2	=2	=2	=2	=2
!	!	!LO:TX:t=P:problem:all\right:global	!	!	!	!	!
4G\	.	4B\	.	1g	-tus	1dd	-ctus
4A\	.	4c\	.	.	.	.	.
4B\	.	4d\	.	.	.	.	.
4G\	.	4B\	.	.	.	.	.
=3	=3	=3	=3	=3	=3	=3	=3
4c\	.	4e\	.	1g	San-	1ee	san-
4G\	.	4d\	.	.	.	.	.
4E\	.	2c\	.	.	.	.	.
4C/	.	.	.	.	.	.	.
=4	=4	=4	=4	=4	=4	=4	=4
!	!	!	!	!LO:TX:t=P:problem:all\right:global	!	!LO:TX:t=P:problem:all\right:global	!
1G	-ctus	2.B\	-ctus	2.g\	-ctus	2.dd\	-ctus
.	.	4r	.	4r	.	4r	.
=5	=5	=5	=5	=5	=5	=5	=5
4G\	San-	4B\	san-	1g	San-	1dd	San-
4A\	.	4c\	.	.	.	.	.
4B\	.	4d\	.	.	.	.	.
4G\	.	4B\	.	.	.	.	.
=6	=6	=6	=6	=6	=6	=6	=6
4A\	.	1c	.	1f#X	-ctus	1dd	-ctus
4B\	.	.	.	.	.	.	.
4c\	.	.	.	.	.	.	.
4A\	.	.	.	.	.	.	.
!LO:LB:g=original	!	!	!	!	!	!	!
=7	=7	=7	=7	=7	=7	=7	=7
!	!	!LO:TX:b:t=V&colon; S&colon;	!	!	!	!	!
!	!	!LO:TX:a:t=P:problem:napis "V:S:" na pięciolinii za kreską taktową	!	!	!	!	!
4B\	.	1G	.	1fn	San-	1dd	San-
4c\	.	.	.	.	.	.	.
4d\	.	.	.	.	.	.	.
4B\	.	.	.	.	.	.	.
!	!	!LO:PB:g=original	!	!	!	!	!
=8	=8	=8	=8	=8	=8	=8	=8
2c\	-ctus	2G/	-ctus	2e\	-ctus	2cc\	-ctus
4c\	san-	4G/	san-	4e\	san-	4ee\	san-
4B\	-ctus	4G#X/	-ctus	4f\	-ctus	4dd\	-ctus
!	!	!	!	!	!	!LO:LB:g=original	!
=9	=9	=9	=9	=9	=9	=9	=9
4.A\	Do-	4.A\	Do-	4.e\	Do-	4.cc\	Do-
8A\	-mi-	8A\	-mi-	8e\	-mi-	8cc\	-mi-
2G#X\	-nus	2B\	-nus	2e\	-nus	2dd\	-nus
!	!	!	!	!LO:LB:g=original	!	!	!
=10	=10	=10	=10	=10	=10	=10	=10
(>4A\	De-	2A\	De-	2e\	De-	2cc\	De-
4E\)	.	.	.	.	.	.	.
(<4C/	-us	2A\	-us	2e\	-us	2cc\	-us
4AA/)	.	.	.	.	.	.	.
=11	=11	=11	=11	=11	=11	=11	=11
(>4D\	sa-	2A\	sa-	(>2f\	Sa-	2.dd\	Sa-
4BB\	.	.	.	.	.	.	.
4E\)	.	2G#X/	-ba-	4e\)	.	.	.
4E\	-ba-	.	.	4e\	-ba-	4b\	-ba-
=12	=12	=12	=12	=12	=12	=12	=12
!LO:SIC:v:l:s=-oth	!	!LO:SIC:v:l:s=-oth	!	!LO:SIC:v:l:s=-oth	!	!	!
4AA/	-ot	4A\	-ot	4e\	-ot	4cc\	-oth
4C/	ple-	4Gn/	ple-	4g\	ple-	4ee\	ple-
4BB/	-ni	4G/	-ni	4f\	-ni	4dd\	-ni
4C/	sunt	4G/	sunt	4e\	sunt	4cc\	sunt
!LO:LB:g=original	!	!	!	!	!	!	!
=13	=13	=13	=13	=13	=13	=13	=13
!LO:SIC:v:l:s=cae-	!	!LO:SIC:v:l:s=cae-	!	!LO:SIC:v:l:s=cae-	!	!LO:SIC:v:l:s=cae-	!
2G\	ce-	2G/	ce-	2d\	ce-	2b\	ce-
4G\	-li	4G/	-li	4d\	-li	4b\	-li
4G\	et	4G/	et	(8d\L	et	(>8b\L	et
.	.	.	.	8e\J)	.	8cc\J)	.
=14	=14	=14	=14	=14	=14	=14	=14
(>4G\	ter-	1G	ter-	(>2f\	ter-	(>2dd\	ter-
8A\L	.	.	.	.	.	.	.
8B\J	.	.	.	.	.	.	.
4c\	.	.	.	4g\	.	4ee\	.
4G\)	.	.	.	4f\)	.	4dd\)	.
!	!	!LO:LB:g=original	!	!	!	!LO:LB:g=original	!
=15	=15	=15	=15	=15	=15	=15	=15
2C/	-ra	2G/	-ra	2e\	-ra	2cc\	-ra
(<2C/	glo-	(>2c\	glo-	(>2g\	glo-	(>2ee\	glo-
=16	=16	=16	=16	=16	=16	=16	=16
2BB/)	.	2G/)	.	2f\)	.	2dd\)	.
4C/	-ri-	4G/	-ri-	4e\	-ri-	4cc\	-ri-
4C/	-a	4G/	-a	4e\	-a	4cc\	-a
!	!	!	!	!LO:LB:g=original	!	!	!
=17	=17	=17	=17	=17	=17	=17	=17
4GG/	tu-	4G/	tu-	4d\	tu-	4b\	tu-
4GG/	-a	4G/	-a	4d\	-a	4b\	-a
(<2BB/	glo-	(>2B\	glo-	(>2a\	glo-	(>2ff\	glo-
=18	=18	=18	=18	=18	=18	=18	=18
2C/)	.	2c\)	.	2g\)	.	2ee\)	.
4BB/	-ri-	4B\	-ri-	4f\	-ri-	4dd\	-ri-
4GG/	-a	4B\	-a	4f\	-a	4dd\	-a
!LO:LB:g=original	!	!	!	!	!	!	!
=19	=19	=19	=19	=19	=19	=19	=19
4C/	glo-	2.G/	tu-	4e\	glo-	4cc\	tu-
4D/	.	.	.	4f\	.	4b\	-a
4E\	.	.	.	4g\	.	[>2cc\	glo-
4F\	.	4F/	-a	(>4a\	.	.	.
=20	=20	=20	=20	=20	=20	=20	=20
2E\	.	2G/	glo-	2g\)	.	2cc\]	.
4D\	-ri-	4G/	-ri-	4f\	-ri-	4b\	-ri-
4C\	-a	4G/	-a	4e\	-a	4cc\	-a
=21	=21	=21	=21	=21	=21	=21	=21
(>1G	tu-	[>1G	tu-	2d\	tu-	(>2b\	tu-
.	.	.	.	[>2e\	.	[>2cc\)	.
!	!	!	!	!	!	!LO:LB:g=original	!
=22	=22	=22	=22	=22	=22	=22	=22
1GG)	.	1G]	.	2e\]	.	2cc\]	.
.	.	.	.	2d\	.	2b\	.
=23	=23	=23	=23	=23	=23	=23	=23
1C	-a.	1G	-a.	1e	-a	1cc	-a.
!	!	!LO:LB:g=original	!	!LO:LB:g=original	!	!	!
==24	==24	==24	==24	==24	==24	==24	==24
*	*	*clefC4	*	*clefC3	*	*clefC1	*
*M4/4	*	*M4/4	*	*M4/4	*	*M4/4	*
*met(C.)	*	*met(C.)	*	*met(C.)	*	*met(C.)	*
!	!	!LO:TX:t=P:problem:klucz przed metrum	!	!LO:TX:t=P:problem:klucz przed metrum	!	!LO:TX:t=P:problem:klucz przed metrum	!
!	!	!	!	!	!	!LO:TX:t=P:problem:napis "Osanna" na pięciolinii przed kluczem	!
!	!	!	!	!	!	!LO:TX:a:t=Osanna	!
(>4C/	O-	1G	O-	1e	O-	1cc	O-
4c\	.	.	.	.	.	.	.
4G\	.	.	.	.	.	.	.
4E\)	.	.	.	.	.	.	.
=25	=25	=25	=25	=25	=25	=25	=25
(>4G\	-san-	2B\	-san-	2g\	-san-	2dd\	-san-
4d\)	.	.	.	.	.	.	.
4B\	-na	4B\	-na	4g\	-na	4dd\	-na
4G\	o-	4B\	o-	4g\	o-	4dd\	o-
!LO:LB:g=original	!	!	!	!	!	!	!
=26	=26	=26	=26	=26	=26	=26	=26
4c\	-san-	4c\	-san-	4g\	-san-	4ee\	-san-
4G\	-na	4B\	-na	4g\	-na	4dd\	-na
4E\	in	4c\	in	4g\	in	4ee\	in
4C/	ex-	(>8d\L	ex-	4g\	ex-	(>8ff\L	ex-
.	.	8c\J)	.	.	.	8ee\J)	.
!	!	!	!	!	!	!LO:LB:g=original	!
=27	=27	=27	=27	=27	=27	=27	=27
4G\	-cel-	4c\	-cel-	4g\	-cel-	4ee\	-cel-
4GG/	-sis	4B\	-sis	4g\	-sis	4dd\	-sis
4r	.	4r	.	4r	.	4r	.
4G\	o-	(>8B\L	o-	4g\	o-	(>8dd\L	o-
.	.	8c\J)	.	.	.	8ee\J)	.
=28	=28	=28	=28	=28	=28	=28	=28
(>4G\	-san-	2d\	-san-	2g\	-san-	2ff\	-san-
4A\)	.	.	.	.	.	.	.
(>4B\	-na	2B\	-na	2g\	-na	2dd\	-na
4G\)	.	.	.	.	.	.	.
=29	=29	=29	=29	=29	=29	=29	=29
(>4c\	in	2G/	in	(>4g\	in	(>4ee\	in
4G\)	.	.	.	4f\)	.	4dd\)	.
(>4E\	ex-	2G/	ex-	(>4e\	ex-	(>4cc\	ex-
4D\)	.	.	.	4f\)	.	4dd\)	.
=30	=30	=30	=30	=30	=30	=30	=30
(>4C\	-cel-	1G	-cel-	(>2e\	-cel-	(>2cc\	-cel-
4E\	.	.	.	.	.	.	.
4G\	.	.	.	2d\)	.	2b\)	.
4GG/)	.	.	.	.	.	.	.
!	!	!LO:LB:g=original	!	!LO:LB:g=original	!	!	!
=31	=31	=31	=31	=31	=31	=31	=31
2C/	-sis	2G/	-sis	2e\	-sis	2cc\	-sis
4r	.	4r	.	4r	.	4r	.
4G\	o-	(>8B\L	o-	4g\	o-	(>8dd\L	o-
.	.	8c\J)	.	.	.	8ee\J)	.
!LO:LB:g=original	!	!	!	!	!	!	!
=32	=32	=32	=32	=32	=32	=32	=32
(>4G\	-san-	2d\	-san-	2g\	-san-	2ff\	-san-
4A\)	.	.	.	.	.	.	.
(>4B\	-na	2B\	-na	2g\	-na	2dd\	-na
4G\)	.	.	.	.	.	.	.
!	!	!	!	!	!	!LO:LB:g=original	!
=33	=33	=33	=33	=33	=33	=33	=33
(>4c\	in	2G/	in	(>4g\	in	(>4ee\	in
4G\)	.	.	.	4f\)	.	4dd\)	.
(>4E\	ex-	2G/	ex-	(>4e\	ex-	(>4cc\	ex-
4D\)	.	.	.	4f\)	.	4dd\)	.
=34	=34	=34	=34	=34	=34	=34	=34
(>4C/	-cel-	1G	-cel-	(>2e\	-cel-	(>2cc\	-cel-
4E\	.	.	.	.	.	.	.
4G\	.	.	.	2d\)	.	2b\)	.
4GG/)	.	.	.	.	.	.	.
=35	=35	=35	=35	=35	=35	=35	=35
1C	-sis.	1G	-sis.	1e	-sis.	1cc	-sis.
!LO:LB:g=original	!	!LO:LB:g=original	!	!LO:PB:g=original	!	!LO:PB:g=original	!
==36	==36	==36	==36	==36	==36	==36	==36
*clefF4	*	*clefC4	*	*clefC3	*	*clefC1	*
*M4/4	*	*M4/4	*	*M4/4	*	*M4/4	*
*met(C.)	*	*met(C.)	*	*met(C.)	*	*met(C.)	*
!LO:TX:t=P:problem:klucz przed metrum	!	!LO:TX:t=P:problem:klucz przed metrum	!	!LO:TX:t=P:problem:klucz przed metrum	!	!LO:TX:t=P:problem:klucz przed metrum	!
!LO:TX:t=P:problem:napis "Benedictus" na pięciolinii przed kluczem	!	!LO:TX:t=P:problem:napis "Benedictus" na pięciolinii przed kluczem	!	!LO:TX:t=P:problem:napis "Benedictus" na pięciolinii przed kluczem	!	!LO:TX:t=P:problem:napis "Benedictus" na pięciolinii przed kluczem	!
!LO:TX:a:t=Benedictus	!	!LO:TX:a:t=Benedictus	!	!LO:TX:a:t=Benedictus	!	!LO:TX:a:t=Benedictus	!
4C/	Be-	4c\	Be-	4g\	Be-	4ee\	Be-
4D\	-ne-	4B\	-ne-	4f\	-ne-	4dd\	-ne-
4E\	-dic-	4G/	-dic-	4e\	-dic-	4cc\	-dic-
8F\	-tus	8A\	-tus	8f\	-tus	8dd\	-tus
8F#X\	qui	8A\	qui	8e\	qui	8cc\	qui
=37	=37	=37	=37	=37	=37	=37	=37
2G\	ve-	2G/	ve-	2d\	ve-	2b\	ve-
4G\	-nit	4G/	-nit	4d\	-nit	4b\	-nit
4G\	qui	4G/	qui	(>8d\L	qui	(>8b\L	qui
.	.	.	.	8e\J)	.	8cc\J)	.
=38	=38	=38	=38	=38	=38	=38	=38
(>2G\	ve-	1B	ve-	8f\L	ve-	8dd\L	ve-
.	.	.	.	8e\	.	8cc\	.
.	.	.	.	8d\	.	8b\	.
.	.	.	.	8e\J	.	8cc\J	.
2GG/)	.	.	.	8f\L	.	8dd\L	.
.	.	.	.	8a\	.	8ff\	.
.	.	.	.	8g\	.	8ee\	.
.	.	.	.	8f\J	.	8dd\J	.
=39	=39	=39	=39	=39	=39	=39	=39
2C/	-nit	2G/	-nit	2e\	-nit	2cc\	-nit
(>4c\	in	4G/	in	(>4e\	in	(>4cc\	in
4G\)	.	4B/	.	4f\)	.	4dd\)	.
!LO:LB:g=original	!	!	!	!LO:LB:g=original	!	!LO:LB:g=original	!
=40	=40	=40	=40	=40	=40	=40	=40
4C/	no-	4c\	no-	(>8g\L	no-	(>8ee\L	no-
.	.	.	.	8e\J)	.	8cc\J)	.
8C/	-mi-	8c\	-mi-	8a\	-mi-	8ff\	-mi-
8C/	-ne	8c\	-ne	8g\	-ne	8ee\	-ne
4F\	Do-	4A/	Do-	(>8g\L	Do-	(>8ee\L	Do-
.	.	.	.	8f\J)	.	8dd\J)	.
4F#X\	-mi-	4G/	-mi-	(>8f\L	-mi-	(>8dd\L	-mi-
.	.	.	.	8e\J)	.	8cc\J)	.
!	!	!LO:LB:g=original	!	!	!	!	!
=41	=41	=41	=41	=41	=41	=41	=41
2G\	-ni	2G/	-ni	2d\	-ni	2b\	-ni
4r	.	4r	.	4r	.	4r	.
4G\	qui	4d\	qui	4d\	qui	4b\	qui
=42	=42	=42	=42	=42	=42	=42	=42
(>4.G\	ve-	(>4.d\	ve-	(>4.d\	ve-	(>4.b\	ve-
8A\)	.	8c\)	.	8e\)	.	8cc\)	.
4B\	-nit	4B\	-nit	4f\	-nit	4dd\	-nit
!LO:TX:b:t=V&colon; S&colon;	!	!	!	!	!	!	!
!LO:TX:a:t=P:problem:napis "V:S:" na pięciolinii za kreską taktową	!	!	!	!	!	!	!
4G\	qui	4B\	qui	4f\	qui	4dd\	qui
!LO:PB:g=original	!	!	!	!	!	!	!
=43	=43	=43	=43	=43	=43	=43	=43
(>4.c\	ve-	2G/	ve-	(>4.e\	ve-	(>4.cc\	ve-
8G\)	.	.	.	8f\)	.	8dd\)	.
4C/	-nit	4c\	-nit	4g\	-nit	4ee\	-nit
4C/	in	4c\	in	4g\	in	4ee\	in
!	!	!	!	!	!	!LO:LB:g=original	!
=44	=44	=44	=44	=44	=44	=44	=44
2C/	no-	2c\	no-	2g\	no-	2ee\	no-
4D\	-mi-	4B\	-mi-	4f\	-mi-	4dd\	-mi-
4E\	-ne	4G/	-ne	4e\	-ne	4cc\	-ne
!	!	!	!	!LO:LB:g=original	!	!	!
=45	=45	=45	=45	=45	=45	=45	=45
(>4F\	Do-	(<2A/	Do-	(>4a\	Do-	(>4ff\	Do-
8E\L	.	.	.	8g\L	.	8ee\L	.
8F\J	.	.	.	8f\J)	.	8dd\J)	.
4G\)	.	4G/)	.	(>4e\	-mi-	(>4cc\	-mi-
4GG/	-mi-	4G/	-mi-	4d\)	.	4b\)	.
=46	=46	=46	=46	=46	=46	=46	=46
2C/	-ni	2G/	-ni	2e\	-ni	2cc\	-ni
4r	.	4r	.	4r	.	4r	.
4G\	qui	4d\	qui	4d\	qui	4b\	qui
!	!	!LO:LB:g=original	!	!	!	!	!
=47	=47	=47	=47	=47	=47	=47	=47
(>4.G\	ve-	(>4.d\	ve-	(>4.d\	ve-	(>4.b\	ve-
8A\)	.	8c\)	.	8e\)	.	8cc\)	.
4B\	-nit	4B\	-nit	4f\	-nit	4dd\	-nit
4G\	qui	4B\	qui	4f\	qui	4dd\	qui
=48	=48	=48	=48	=48	=48	=48	=48
(>4.c\	ve-	2G/	ve-	(>4.e\	ve-	(>4.cc\	ve-
8G\)	.	.	.	8f\)	.	8dd\)	.
4C/	-nit	4c\	-nit	4g\	-nit	4ee\	-nit
4C/	in	4c\	in	4g\	in	4ee\	in
!LO:LB:g=original	!	!	!	!	!	!LO:LB:g=original	!
=49	=49	=49	=49	=49	=49	=49	=49
2C/	no-	2c\	no-	2g\	no-	2ee\	no-
4D\	-mi-	4B\	-mi-	4f\	-mi-	4dd\	-mi-
4E\	-ne	4G/	-ne	4e\	-ne	4cc\	-ne
=50	=50	=50	=50	=50	=50	=50	=50
(>4F\	Do-	(<2A/	Do-	(>4a\	Do-	(>4ff\	Do-
8E\L	.	.	.	8g\L	.	8ee\L	.
8F\J	.	.	.	8f\J)	.	8dd\J)	.
4G\)	.	4G/)	.	(>4e\	-mi-	(>4cc\	-mi-
4GG/	-mi-	4G/	-mi-	4d\)	.	4b\)	.
!	!	!	!	!LO:LB:g=original	!	!	!
=51	=51	=51	=51	=51	=51	=51	=51
1C	-ni.	1G	-ni.	1e	-ni.	1cc	-ni.
!	!	!LO:LB:g=original	!	!	!	!LO:LB:g=original	!
==52	==52	==52	==52	==52	==52	==52	==52
*	*	*clefC4	*	*	*	*	*
*	*	*M4/4	*	*M4/4	*	*	*
*	*	*met(C.)	*	*met(C.)	*	*	*
!	!	!LO:TX:t=P:problem:klucz przed metrum	!	!	!	!LO:TX:a:t=Osanna Da Capo.	!
!	!	!	!	!	!	!LO:TX:t=P:problem:napis na pięciolinii	!
(>4C/	O-	1G	O-	1e	O-	1ccyy	O-
4c\	.	.	.	.	.	.	.
4G\	.	.	.	.	.	.	.
4E\)	.	.	.	.	.	.	.
=53	=53	=53	=53	=53	=53	=53	=53
(>4G\	-san-	2B\	-san-	2g\	-san-	2dd\yy	-san-
4d\)	.	.	.	.	.	.	.
4B\	-na	4B\	-na	4g\	-na	4dd\yy	-na
4G\	o-	4B\	o-	4g\	o-	4dd\yy	o-
=54	=54	=54	=54	=54	=54	=54	=54
4c\	-san-	4c\	-san-	4g\	-san-	4ee\yy	-san-
4G\	-na	4B\	-na	4g\	-na	4dd\yy	-na
4E\	in	4c\	in	4g\	in	4ee\yy	in
4C/	ex-	(>8d\L	ex-	4g\	ex-	(>8ff\Lyy	ex-
.	.	8c\J)	.	.	.	8ee\J)yy	.
!LO:LB:g=original	!	!	!	!	!	!	!
=55	=55	=55	=55	=55	=55	=55	=55
4G\	-cel-	4c\	-cel-	4g\	-cel-	4ee\yy	-cel-
4GG/	-sis	4B\	-sis	4g\	-sis	4dd\yy	-sis
4r	.	4r	.	4r	.	4ryy	.
4G\	o-	(>8B\L	o-	4g\	o-	(>8dd\Lyy	o-
.	.	8c\J)	.	.	.	8ee\J)yy	.
=56	=56	=56	=56	=56	=56	=56	=56
(>4G\	-san-	2d\	-san-	2g\	-san-	2ff\yy	-san-
4A\)	.	.	.	.	.	.	.
(>4B\	-na	2B\	-na	2g\	-na	2dd\yy	-na
4G\)	.	.	.	.	.	.	.
=57	=57	=57	=57	=57	=57	=57	=57
(>4c\	in	2G/	in	(>4g\	in	(>4ee\yy	in
4G\)	.	.	.	4f\)	.	4dd\)yy	.
(>4E\	ex-	2G/	ex-	(>4e\	ex-	(>4cc\yy	ex-
4D\)	.	.	.	4f\)	.	4dd\)yy	.
!	!	!	!	!LO:LB:g=original	!	!	!
=58	=58	=58	=58	=58	=58	=58	=58
(>4C\	-cel-	1G	-cel-	(>2e\	-cel-	(>2cc\yy	-cel-
4E\	.	.	.	.	.	.	.
4G\	.	.	.	2d\)	.	2b\)yy	.
4GG/)	.	.	.	.	.	.	.
!	!	!LO:LB:g=original	!	!	!	!	!
=59	=59	=59	=59	=59	=59	=59	=59
2C/	-sis	2G/	-sis	2e\	-sis	2cc\yy	-sis
4r	.	4r	.	4r	.	4ryy	.
4G\	o-	(>8B\L	o-	4g\	o-	(>8dd\Lyy	o-
.	.	8c\J)	.	.	.	8ee\J)yy	.
=60	=60	=60	=60	=60	=60	=60	=60
(>4G\	-san-	2d\	-san-	2g\	-san-	2ff\yy	-san-
4A\)	.	.	.	.	.	.	.
(>4B\	-na	2B\	-na	2g\	-na	2dd\yy	-na
4G\)	.	.	.	.	.	.	.
=61	=61	=61	=61	=61	=61	=61	=61
(>4c\	in	2G/	in	(>4g\	in	(>4ee\yy	in
4G\)	.	.	.	4f\)	.	4dd\)yy	.
(>4E\	ex-	2G/	ex-	(>4e\	ex-	(>4cc\yy	ex-
4D\)	.	.	.	4f\)	.	4dd\)yy	.
!LO:LB:g=original	!	!	!	!	!	!	!
=62	=62	=62	=62	=62	=62	=62	=62
(>4C\	-cel-	1G	-cel-	(>2e\	-cel-	(>2cc\yy	-cel-
4E\	.	.	.	.	.	.	.
4G\	.	.	.	2d\)	.	2b\)yy	.
4GG/)	.	.	.	.	.	.	.
=63	=63	=63	=63	=63	=63	=63	=63
1C	-sis.	1G	-sis.	1e	-sis.	1ccyy	-sis.
==	==	==	==	==	==	==	==
*-	*-	*-	*-	*-	*-	*-	*-
!!!system-decoration: [(s1,s2,s3,s4)]
!!!RDF**kern: > = above
!!!RDF**kern: < = below
!!!EED: Mateusz Mrugas
!!!EST: 2021-02-01
!!!ENC: Andrzej Kubiczek
!!!END: 2021-01-27
